X: 15258
T: Girl Of The House, The
R: jig
M: 6/8
K: Dmixolydian
|:AG|F2D DED|ABA GEA|~D3 AGE|F2D DED|
~F3 GFG|AGA cde|dcA GEC|DED D:|
|:AB|c2c cAF|~G3 GFG|A2B cAG|Ad^c d2e|
fed cAG|F2A GED|dcA GEC|DED D:|

